X: 1
T: The Heathery Cruach
R: reel
M: 4/4
L: 1/8
K: Dmaj
|:Bc|d2AG FDAG|FDAF E2Bc|d2AG FDAG|FGAF Dgfe|
d2AG FDAG|FDAF E2FG|ABAG FDDE|FGAF D2:|
|:ed|cAA2 cAGB|cBcd efed|cAA2 cAGB|EFGE Dfed|
cAA2 cAGB|cBcd efe2|f2ed cAA2|EFGE A2:|


Tune 1265	Setting 14579

